bus-clock.svg

<svg fill="currentColor" viewBox="0 0 24 24"><path d="M16.5 4v4.25l2.86 1.69-.75 1.22L15 9V4zm-.5 9c1.36 0 2.54-.5 3.5-1.47 1-.97 1.5-2.14 1.5-3.53 0-1.36-.5-2.54-1.5-3.5-.96-1-2.14-1.5-3.5-1.5-1.39 0-2.56.5-3.53 1.5C11.5 5.46 11 6.64 11 8c0 1.39.5 2.56 1.47 3.53S14.61 13 16 13m-2.5 6c.44 0 .8-.16 1.08-.46s.42-.65.42-1.04c0-.42-.14-.77-.42-1.07S13.94 16 13.5 16s-.8.13-1.08.43-.42.65-.42 1.07c0 .39.14.74.42 1.04s.64.46 1.08.46M3 13h8.11C9.7 11.64 9 10 9 8H3zm1.5 6c.44 0 .8-.16 1.08-.46S6 17.89 6 17.5c0-.42-.14-.77-.42-1.07S4.94 16 4.5 16s-.8.13-1.08.43S3 17.08 3 17.5c0 .39.14.74.42 1.04s.64.46 1.08.46M16 1c1.92 0 3.58.67 4.95 2.05C22.33 4.42 23 6.08 23 8c0 1.77-.56 3.29-1.72 4.59-1.15 1.29-2.58 2.07-4.28 2.32V18c0 .84-.33 1.58-1 2.2V22c0 .27-.11.5-.3.71-.2.2-.42.29-.7.29h-1c-.27 0-.5-.09-.71-.29A.98.98 0 0 1 13 22v-1H5v1c0 .27-.09.5-.29.71-.21.2-.44.29-.71.29H3c-.28 0-.5-.09-.7-.29-.19-.21-.3-.44-.3-.71v-1.8c-.67-.62-1-1.36-1-2.2V8c0-1.58.67-2.65 2.05-3.2C4.42 4.26 6.41 4 9 4h.61c.28 0 .48.03.61.03C11.63 2 13.55 1 16 1"/></svg>

<svg  viewBox="0 0 24 24" fill="currentColor"><path  d="M16.5,4V8.25L19.36,9.94L18.61,11.16L15,9V4H16.5M16,13C17.36,13 18.54,12.5 19.5,11.53C20.5,10.56 21,9.39 21,8C21,6.64 20.5,5.46 19.5,4.5C18.54,3.5 17.36,3 16,3C14.61,3 13.44,3.5 12.47,4.5C11.5,5.46 11,6.64 11,8C11,9.39 11.5,10.56 12.47,11.53C13.44,12.5 14.61,13 16,13M13.5,19C13.94,19 14.3,18.84 14.58,18.54C14.86,18.24 15,17.89 15,17.5C15,17.08 14.86,16.73 14.58,16.43C14.3,16.13 13.94,16 13.5,16C13.06,16 12.7,16.13 12.42,16.43C12.14,16.73 12,17.08 12,17.5C12,17.89 12.14,18.24 12.42,18.54C12.7,18.84 13.06,19 13.5,19M3,13H11.11C9.7,11.64 9,10 9,8H3V13M4.5,19C4.94,19 5.3,18.84 5.58,18.54C5.86,18.24 6,17.89 6,17.5C6,17.08 5.86,16.73 5.58,16.43C5.3,16.13 4.94,16 4.5,16C4.06,16 3.7,16.13 3.42,16.43C3.14,16.73 3,17.08 3,17.5C3,17.89 3.14,18.24 3.42,18.54C3.7,18.84 4.06,19 4.5,19M16,1C17.92,1 19.58,1.67 20.95,3.05C22.33,4.42 23,6.08 23,8C23,9.77 22.44,11.29 21.28,12.59C20.13,13.88 18.7,14.66 17,14.91V18C17,18.84 16.67,19.58 16,20.2V22C16,22.27 15.89,22.5 15.7,22.71C15.5,22.91 15.28,23 15,23H14C13.73,23 13.5,22.91 13.29,22.71C13.09,22.5 13,22.27 13,22V21H5V22C5,22.27 4.91,22.5 4.71,22.71C4.5,22.91 4.27,23 4,23H3C2.72,23 2.5,22.91 2.3,22.71C2.11,22.5 2,22.27 2,22V20.2C1.33,19.58 1,18.84 1,18V8C1,6.42 1.67,5.35 3.05,4.8C4.42,4.26 6.41,4 9,4C9.13,4 9.33,4 9.61,4C9.89,4 10.09,4.03 10.22,4.03C11.63,2 13.55,1 16,1Z"/></svg>
